html/assets/images/dynamic/icon7.svg

<svg width="108" height="94" viewBox="0 0 108 94" fill="none" xmlns="http://www.w3.org/2000/svg">
<g id="Group">
<path id="Vector" d="M37.2012 77.319C38.068 76.4522 38.9805 75.0378 41.7637 75.0378H75.3436C77.8758 75.0378 91.8142 61.0537 93.5936 59.0691C95.3045 57.1528 102.901 45.7466 105 40.8191C103.677 39.0397 100.095 37.5569 95.8748 38.5379C91.837 39.4732 89.4645 42.3703 86.7498 47.6628L76.3017 53.0922" stroke="#00999A" stroke-width="4" stroke-miterlimit="10"/>
<path id="Vector_2" d="M50.2493 61.3506H70.7805C79.9055 61.3506 79.9055 49.9443 70.7805 49.9443H57.093C55.1996 49.9443 51.618 45.3818 48.6068 45.3818H37.2006C34.1209 45.3818 30.2884 47.8912 28.0756 49.9443C24.6537 53.3662 18.6312 59.0693 18.6312 59.0693" stroke="#00999A" stroke-width="4" stroke-miterlimit="10"/>
<path id="Vector_3" d="M14.4047 54.5137L3.00024 65.9182L28.0998 91.0178L39.5043 79.6133L14.4047 54.5137Z" stroke="#00999A" stroke-width="4" stroke-miterlimit="10"/>
<path id="Vector_4" d="M14.3882 65.9131L18.9507 70.4756" stroke="#00999A" stroke-width="4" stroke-miterlimit="10"/>
<path id="Vector_5" d="M49.1079 18.0068C53.5175 18.0068 57.0923 14.4321 57.0923 10.0224C57.0923 5.61281 53.5175 2.03809 49.1079 2.03809C44.6983 2.03809 41.1235 5.61281 41.1235 10.0224C41.1235 14.4321 44.6983 18.0068 49.1079 18.0068Z" stroke="#00999A" stroke-width="4" stroke-miterlimit="10"/>
<path id="Vector_6" d="M71.9209 38.5381C67.5181 38.5381 63.9365 34.9565 63.9365 30.5537C63.9365 26.1509 67.5181 22.5693 71.9209 22.5693C76.3237 22.5693 79.9052 26.1509 79.9052 30.5537C79.9052 34.9565 76.3237 38.5381 71.9209 38.5381Z" stroke="#00999A" stroke-width="4" stroke-miterlimit="10"/>
<path id="Vector_7" d="M45.6873 38.538L75.3435 2.03809" stroke="#00999A" stroke-width="4" stroke-miterlimit="10"/>
</g>
</svg>

<svg width="108" height="94" fill="none" xmlns="http://www.w3.org/2000/svg"><g stroke="#00999A" stroke-width="4" stroke-miterlimit="10"><path d="M37.201 77.319c.867-.867 1.78-2.281 4.563-2.281h33.58c2.532 0 16.47-13.984 18.25-15.969 1.71-1.916 9.307-13.322 11.406-18.25-1.323-1.78-4.905-3.262-9.125-2.281-4.038.935-6.41 3.832-9.125 9.125l-10.448 5.43"/><path d="M50.25 61.35h20.53c9.126 0 9.126-11.406 0-11.406H57.094c-1.893 0-5.475-4.562-8.486-4.562H37.2c-3.08 0-6.913 2.51-9.125 4.562-3.422 3.422-9.445 9.125-9.445 9.125"/><path d="M14.405 54.514L3 65.918l25.1 25.1 11.404-11.405-25.1-25.1zm-.017 11.399l4.563 4.563m30.157-52.469a7.984 7.984 0 100-15.969 7.984 7.984 0 000 15.969zM71.92 38.538c-4.402 0-7.983-3.581-7.983-7.984 0-4.403 3.581-7.985 7.984-7.985 4.403 0 7.984 3.582 7.984 7.985 0 4.402-3.581 7.984-7.984 7.984zm-26.233 0l29.657-36.5"/></g></svg>
